src/templates/assets/lastfm-logo.svg

<svg width="24" height="14" fill="none" xmlns="http://www.w3.org/2000/svg"><path d="M10.584 11.875l-.88-2.392s-1.43 1.595-3.573 1.595c-1.897 0-3.244-1.65-3.244-4.289 0-3.381 1.704-4.591 3.382-4.591 2.419 0 3.188 1.567 3.849 3.574l.88 2.75c.879 2.667 2.528 4.811 7.284 4.811 3.409 0 5.719-1.044 5.719-3.793 0-2.227-1.265-3.381-3.629-3.932l-1.76-.385c-1.209-.275-1.566-.77-1.566-1.594 0-.935.742-1.485 1.952-1.485 1.319 0 2.034.495 2.144 1.677l2.749-.33C23.671 1.017 21.967 0 19.162 0c-2.474 0-4.893.935-4.893 3.931 0 1.87.907 3.052 3.188 3.602l1.869.439c1.402.33 1.869.907 1.869 1.705 0 1.017-.989 1.43-2.858 1.43-2.776 0-3.932-1.457-4.591-3.464l-.907-2.749C11.684 1.32 9.842 0 6.186 0 2.145-.001 0 2.556 0 6.899c0 4.179 2.145 6.433 5.993 6.433 3.107.001 4.591-1.457 4.591-1.457z" fill="#000"/></svg>

<svg width="24" height="14" viewBox="0 0 24 14" fill="none" xmlns="http://www.w3.org/2000/svg">
<path d="M10.584 11.875L9.704 9.483C9.704 9.483 8.274 11.078 6.131 11.078C4.234 11.078 2.887 9.428 2.887 6.789C2.887 3.408 4.591 2.198 6.269 2.198C8.688 2.198 9.457 3.765 10.118 5.772L10.998 8.522C11.877 11.189 13.526 13.333 18.282 13.333C21.691 13.333 24.001 12.289 24.001 9.54C24.001 7.313 22.736 6.159 20.372 5.608L18.612 5.223C17.403 4.948 17.046 4.453 17.046 3.629C17.046 2.694 17.788 2.144 18.998 2.144C20.317 2.144 21.032 2.639 21.142 3.821L23.891 3.491C23.671 1.017 21.967 2.93204e-07 19.162 2.93204e-07C16.688 2.93204e-07 14.269 0.935 14.269 3.931C14.269 5.801 15.176 6.983 17.457 7.533L19.326 7.972C20.728 8.302 21.195 8.879 21.195 9.677C21.195 10.694 20.206 11.107 18.337 11.107C15.561 11.107 14.405 9.65 13.746 7.643L12.839 4.894C11.684 1.32 9.842 2.93204e-07 6.186 2.93204e-07C2.145 -0.000999707 0 2.556 0 6.899C0 11.078 2.145 13.332 5.993 13.332C9.1 13.333 10.584 11.875 10.584 11.875Z" fill="black"/>
</svg>
